resources/haticons/SVG/buymeacoffee.svg

<!-- Generated by IcoMoon.io -->
<svg version="1.1" xmlns="http://www.w3.org/2000/svg" width="24" height="24" viewBox="0 0 24 24">
<title>buymeacoffee</title>
<path fill="#ff813f" d="M6.898 0l-1.216 2.799h-1.805v2.523h0.695l0.705 4.478h-1.105l1.46 8.23 0.938-0.010 0.942 5.98h8.918l0.062-0.4 0.88-5.58 0.888 0.010 1.46-8.231h-1.056l0.705-4.477h0.756v-2.522h-1.918l-1.217-2.8zM7.426 0.805h9.043l0.771 1.78h-10.588zM4.676 3.602h14.644v0.92h-14.644zM5.129 10.6h13.635l-1.176 6.62-5.649-0.060-5.636 0.060z"></path>
</svg>

<svg xmlns="http://www.w3.org/2000/svg" width="24" height="24"><path fill="#ff813f" d="M6.898 0L5.682 2.799H3.877v2.523h.695L5.277 9.8H4.172l1.46 8.23.938-.01.942 5.98h8.918l.062-.4.88-5.58.888.01 1.46-8.231h-1.056l.705-4.477h.756V2.8h-1.918L16.99 0zm.528.805h9.043l.771 1.78H6.652zm-2.75 2.797H19.32v.92H4.676zm.453 6.998h13.635l-1.176 6.62-5.649-.06-5.636.06z"/></svg>
